www/assets/icons/sports_volleyball.svg

<svg width="24" height="24" viewBox="0 0 24 24" xmlns="http://www.w3.org/2000/svg" fill='currentColor'><path d="M6.03497 3.9849C3.61497 5.8149 2.03497 8.7049 2.03497 11.9749C2.03497 13.4349 2.35497 14.8249 2.92497 16.0849L6.03497 14.2849V3.9849Z"/><path d="M11.035 11.3949V2.0249C9.97497 2.1349 8.96497 2.4049 8.03497 2.8149V13.1349L11.035 11.3949Z"/><path d="M12.035 13.1249L3.92497 17.8049C4.53497 18.6449 5.26497 19.3949 6.10497 20.0049L15.035 14.8649L12.035 13.1249Z"/><path d="M13.035 7.9349V11.3949L21.145 16.0749C21.565 15.1449 21.845 14.1449 21.965 13.0949L13.035 7.9349Z"/><path d="M8.10497 21.1749C9.31497 21.6849 10.635 21.9749 12.035 21.9749C15.375 21.9749 18.325 20.3249 20.145 17.8149L17.035 16.0149L8.10497 21.1749Z"/><path d="M21.955 10.7849C21.405 6.1549 17.695 2.4849 13.035 2.0249V5.6249L21.955 10.7849Z"/></svg>

<svg xmlns="http://www.w3.org/2000/svg" width="24" height="24" viewBox="0 0 24 24" fill='currentColor'><path d="M6.035 3.985c-2.42 1.83-4 4.72-4 7.99 0 1.46.32 2.85.89 4.11l3.11-1.8zm5 7.41v-9.37c-1.06.11-2.07.38-3 .79v10.32zm1 1.73-8.11 4.68c.61.84 1.34 1.59 2.18 2.2l8.93-5.14zm1-5.19v3.46l8.11 4.68c.42-.93.7-1.93.82-2.98zm-4.93 13.24c1.21.51 2.53.8 3.93.8 3.34 0 6.29-1.65 8.11-4.16l-3.11-1.8zm13.85-10.39c-.55-4.63-4.26-8.3-8.92-8.76v3.6z"/></svg>
